kiosk-igrinskij/images/39a3f68820db471a45fe9c465ca16a84.svg

<svg fill="none" height="16" viewBox="0 0 16 16" width="16" xmlns="http://www.w3.org/2000/svg"><g fill="#f1e9dd"><path d="m5.18582 4.49239c.47716.18901.98093-.10827 1.01911-.67413.04372-.63446-.27575-1.04429-.59946-1.45957-.44718-.57367-.90245-1.15773-.41965-2.35869-.97456.205979-1.84388 1.66306-.22614 3.29336.63968.64896.73916.80988.22614 1.19903z"/><path d="m9.0706 3.81826c-.03816.56586-.54237.86314-1.01941.67413.51347-.38915.41343-.55007-.22609-1.19903-1.61729-1.6303-.74822-3.087381.22609-3.29336-.48262 1.20084-.02741 1.78471.41976 2.35826.32379.4153.64336.8252.59965 1.46z"/><path d="m11.9363 3.81826c-.0388.56586-.5424.86314-1.0194.67413.5134-.38915.414-.55007-.2261-1.19903-1.61732-1.6303-.74825-3.087381.2261-3.29336-.4823 1.2008-.0272 1.78467.4198 2.3582.3238.41532.6433.82523.5996 1.46006z"/><path clip-rule="evenodd" d="m1.80413 13.3135c1.13228 1.0323 3.53056 1.7453 6.19587 1.7453 2.6648 0 5.0627-.7127 6.1952-1.7447.1757-.2728.2996-.6476.457-1.1239l.0001-.0003c.0359-.1087.0736-.2226.114-.3419 0 0 1.2337-4.65428 1.2337-4.66215 0-1.77241-5.4508-2.09538-7.53342-2.15416-.00238-.00484-.93078-.00484-.93316 0-2.0826.05939-7.53342.38236-7.53342 2.15477 0 .00787 1.23366 4.66214 1.23366 4.66214.03966.1172.07668.2293.11201.3363.15802.4784.28234.8548.45846 1.1286zm6.19647-4.29707c-3.93817-.02485-7.098506-.74654-7.098506-1.63486 0-2.13537 14.197606-2.13416 14.197606 0-.0006.88832-3.1615 1.61001-7.0991 1.63486z" fill-rule="evenodd"/></g></svg>

<svg width="16" height="16" viewBox="0 0 16 16" fill="none" xmlns="http://www.w3.org/2000/svg">
<path d="M5.18582 4.49239C5.66298 4.6814 6.16675 4.38412 6.20493 3.81826C6.24865 3.1838 5.92918 2.77397 5.60547 2.35869C5.15829 1.78502 4.70302 1.20096 5.18582 0C4.21126 0.205979 3.34194 1.66306 4.95968 3.29336C5.59936 3.94232 5.69884 4.10324 5.18582 4.49239Z" fill="#F1E9DD"/>
<path d="M9.0706 3.81826C9.03244 4.38412 8.52823 4.6814 8.05119 4.49239C8.56466 4.10324 8.46462 3.94232 7.8251 3.29336C6.20781 1.66306 7.07688 0.205979 8.05119 0C7.56857 1.20084 8.02378 1.78471 8.47095 2.35826C8.79474 2.77356 9.11431 3.18346 9.0706 3.81826Z" fill="#F1E9DD"/>
<path d="M11.9363 3.81826C11.8975 4.38412 11.3939 4.6814 10.9169 4.49239C11.4303 4.10324 11.3309 3.94232 10.6908 3.29336C9.07348 1.66306 9.94255 0.205979 10.9169 0C10.4346 1.2008 10.8897 1.78467 11.3367 2.3582C11.6605 2.77352 11.98 3.18343 11.9363 3.81826Z" fill="#F1E9DD"/>
<path fill-rule="evenodd" clip-rule="evenodd" d="M1.80413 13.3135C2.93641 14.3458 5.33469 15.0588 8 15.0588C10.6648 15.0588 13.0627 14.3461 14.1952 13.3141C14.3709 13.0413 14.4948 12.6665 14.6522 12.1902L14.6523 12.1899C14.6882 12.0812 14.7259 11.9673 14.7663 11.848C14.7663 11.848 16 7.19372 16 7.18585C16 5.41344 10.5492 5.09047 8.46658 5.03169C8.4642 5.02685 7.5358 5.02685 7.53342 5.03169C5.45082 5.09108 0 5.41405 0 7.18646C0 7.19433 1.23366 11.8486 1.23366 11.8486C1.27332 11.9658 1.31034 12.0779 1.34567 12.1849C1.50369 12.6633 1.62801 13.0397 1.80413 13.3135ZM8.0006 9.01643C4.06243 8.99158 0.902094 8.26989 0.902094 7.38157C0.902094 5.2462 15.0997 5.24741 15.0997 7.38157C15.0991 8.26989 11.9382 8.99158 8.0006 9.01643Z" fill="#F1E9DD"/>
</svg>
